!!!OTL@@FUR: Tintine, tintone 
!!!OTL@IT: Tintine, tint&ograve;ne
!!!OTL@EN: Tintine, tintone
**kern
*clefG2
*k[f#]
*G:
*M3/4
*MM70
*>[A,B,A,C]
*>A
4dd
=1!|:
*>B
4dd
4b
4g
=2
4f#
4a
4dd
=3
4dd
4cc
4a
=4
4g
4r
4dd
=5
4dd
4b
4g
=6
4f#
4a
4dd
=7
4dd
4cc
4a
=8
4g
8r
8dd
8ee
8dd
=9
8dd
8b
8g
8dd
8ee
8dd
=10
8dd
8cc
8a
8dd
8ee
8dd
=11
8ff#
8ee
8dd
8cc
8b
8a
=12
8dd
8b
8g
8dd
8ee
8dd
=13
8dd
8b
8g
8dd
8ee
8dd
=14
8dd
8cc
8a
8dd
8ee
8dd
=15||
*>C
8ff#
8ee
8dd
8cc
8b
8a
4g
4r
4dd
=16:|!
*>D
4g
4r
4r
==
*-
!!!ARE: Friui
!!!ENC: Kelly Leistikow
!!!END: 2002/22/02
!!!ref: @{OTL@@FUR}
